!!!!SEGMENT: pl-gd--ee-1638--008-005_marenzio-luca--il-quarto-libro-de-madrigalia-a-sei-voci-vattene-anima-mia.krn
!!!cenid: 15xx:867
!!!COM: Marenzio, Luca
!!!COM-rismID: pe30003955
!!!CDT: ~1553-1599/08/22
!!!CNT: Italian
!!!GTL: Il Quarto Libro de madrigalia a sei voci
!!!OTL: Vattene anima mia
!!!OMV: 005
!!!PDT: 1587
!!!AGN:
!!!SMS-siglum: PL-GD
!!!SMS-shelfmark: Ee 1638
!!!SMS-variant:
!!!SMS-altvar:
!!!SMS-shelfwork: 008-005 G
!!!NIFC-rismSourceID: 1001202747
!!!NIFC-rismChildID: 990039254
!!!NIFC-islandoraID: pl-gd:57883
!!!URL-pdf-islandora: https://repozytorium.nifc.pl/islandora/object/pl-gd%3A57883/datastream/PDF/view
!!!URL-scan: https://polish.musicsources.pl/pl/lokalizacje/galeria/klocki-introligatorskie/655 @EN{Scan on Polish Music Sources Website} @PL{Skany w portalu Dziedzictwo Muzyki Polskiej w otwartym dostępie}
!!!IIIF: https://repozytorium.nifc.pl/islandora/object/pl-gd%3A57883/datastream/IIIF/view
!!!ONB-nifc: UWAGA: zbiór na stronach: Canto: s. 706-716, Alto: s. 554-564, Tenore: s. 402-412, Basso: s.250-260, Quinto: s. 98-108, Sesto: s. 16-26. Uwaga: utwory podzielone wg tytułów w spisach treści dostępnych na końcu każdej księgi głosowej.
!!!AIN: 1 alto 1 bass 1 soprn 1 tenor 2 vox
!!!key: F
**kern	**text	**kern	**text	**kern	**text	**kern	**text	**kern	**text	**kern	**text
*part6	*part6	*part5	*part5	*part4	*part4	*part3	*part3	*part2	*part2	*part1	*part1
*staff6	*staff6	*staff5	*staff5	*staff4	*staff4	*staff3	*staff3	*staff2	*staff2	*staff1	*staff1
*I"SESTO	*	*I"QVINTO	*	*I"BASSO	*	*I"TENORE	*	*I"ALTO	*	*I"CANTO	*
*I'V II	*	*I'V I	*	*I'B	*	*I'T	*	*I'A	*	*I'S	*
*ICvox	*	*ICvox	*	*ICvox	*	*ICvox	*	*ICvox	*	*ICvox	*
*Ivox	*	*Ivox	*	*Ibass	*	*Itenor	*	*Ialto	*	*Isoprn	*
*clefC3	*	*clefC3	*	*clefF3	*	*clefC3	*	*clefC2	*	*clefG2	*
*k[b-]	*	*k[b-]	*	*k[b-]	*	*k[b-]	*	*k[b-]	*	*k[b-]	*
*F:	*	*F:	*	*F:	*	*F:	*	*F:	*	*F:	*
*M2/1	*	*M2/1	*	*M2/1	*	*M2/1	*	*M2/1	*	*M2/1	*
*met(C)	*	*met(C)	*	*met(C)	*	*met(C)	*	*met(C)	*	*met(C)	*
=1-	=1-	=1-	=1-	=1-	=1-	=1-	=1-	=1-	=1-	=1-	=1-
*xywh-#18:4477,603,3345,798	*	*xywh-#100:4543,594,3386,822	*	*xywh-#252:4806,621,3304,853	*	*xywh-#404:4703,512,3417,806	*	*xywh-#556:4600,546,3417,852	*	*xywh-#708:4762,552,3392,859	*
!	!	!	!	!LO:TX:t=P:problem:podwójnie zapisany znak przykluczowy BB- B-	!	!	!	!	!	!	!
00r	.	0r	.	0r	.	1c	VAt-	2r	.	1r	.
.	.	.	.	.	.	.	.	2.cc\	VAt-	.	.
.	.	.	.	.	.	4c/	-te-	.	.	2.gg\	Vat-
.	.	.	.	.	.	4d\	-ne	8b-\	-te-	.	.
.	.	.	.	.	.	.	.	8a\	-ne a-	.	.
.	.	.	.	.	.	4e\	a-	4g\	-ni-	.	.
.	.	.	.	.	.	4f\	-ni-	4a\	-ma	8ff\	-te-
.	.	.	.	.	.	.	.	.	.	8ee\	-ne
=2-	=2-	=2-	=2-	=2-	=2-	=2-	=2-	=2-	=2-	=2-	=2-
!	!	!	!	!	!	!	!	!LO:N:acc=#	!	!	!
.	.	1r	.	1r	.	1g	-ma	4bn\	mi-	4dd\	a-
.	.	.	.	.	.	.	.	2cc\	.	4cc\	-ni-
.	.	.	.	.	.	.	.	.	.	2dd\	-ma
!	!	!	!	!	!	!	!	!LO:N:acc=#	!	!	!
.	.	.	.	.	.	.	.	4bn\	.	.	.
.	.	2r	.	1C	Vat-	1g	mia	1cc	-a	1ee	mia
.	.	2.c/	Vat-	.	.	.	.	.	.	.	.
=3-	=3-	=3-	=3-	=3-	=3-	=3-	=3-	=3-	=3-	=3-	=3-
2.g\	VAt-	.	.	4C/	-te-	2r	.	1r	.	1r	.
.	.	8B-/	-te-	4D/	-ne a-	.	.	.	.	.	.
.	.	8A/	-ne a-	.	.	.	.	.	.	.	.
.	.	4G/	-ni-	4E/	-ni-	2.g\	Vat-	.	.	.	.
8f\	-te-	4A/	-ma	4F/	-ma	.	.	.	.	.	.
8e\	-ne a-	.	.	.	.	.	.	.	.	.	.
!	!	!LO:N:acc=#	!	!	!	!	!	!	!	!	!
4d\	-ni-	4Bn/	mi-	0G	mi-	.	.	2r	.	2.gg\	Vat-
4c/	-ma	4c/	.	.	.	8f\	-te-	.	.	.	.
.	.	.	.	.	.	8e\	-ne	.	.	.	.
!LO:N:acc=#	!	!	!	!	!	!	!	!	!	!	!
4Bn/	mi-	2d\	.	.	.	4d\	a-	2g\	a-	.	.
4c/	.	.	.	.	.	4c/	-ni-	.	.	8ff\	-te-
.	.	.	.	.	.	.	.	.	.	8ee\	-ne
=4-	=4-	=4-	=4-	=4-	=4-	=4-	=4-	=4-	=4-	=4-	=4-
!	!	!	!	!	!	!LO:N:acc=#	!	!	!	!	!
4d\	.	1.G	-a	.	.	4Bn/	-ma	4g\	-ni-	4dd\	a-
4e-X\	.	.	.	.	.	2c/	mi-	4g\	-ma	4cc\	-ni-
2d\	.	.	.	.	.	.	.	2g\	mi-	2dd\	-ma
!	!	!	!	!	!	!LO:N:acc=#	!	!	!	!	!
.	.	.	.	.	.	4Bn/	.	.	.	.	.
*	*	*	*	*	*	*custos:c	*	*custos:e	*	*	*
!	!	!	!	!	!	!LO:LB:g=original	!	!LO:LB:g=original	!	!	!
*	*	*	*	*	*	*xywh-#404:4757,1150,3363,729	*	*xywh-#556:4631,1199,3417,691	*	*	*
2g\	-a	.	.	2C/	-a	2c/	-a	2e/	-a	2ee\	mia
1f\	Diſ-	1A/	Diſ-	1F\	Diſ-	1c\	Diſ-	1a\	Diſ-	1cc\	Diſ-
=5-	=5-	=5-	=5-	=5-	=5-	=5-	=5-	=5-	=5-	=5-	=5-
2c/	-ſi	2f\	-ſi	2F/	-ſi	2A/	-ſi	2a\	-ſi	2cc\	-ſi
*	*	*	*	*	*	*	*	*	*	*custos:dd	*
!	!	!	!	!	!	!	!	!	!	!LO:LB:g=original	!
*	*	*	*	*	*	*	*	*	*	*xywh-#708:4747,1222,3407,722	*
4r	.	4r	.	4r	.	4r	.	4r	.	4r	.
4B-y/	nar-	4f\	nar-	4BB-/	nar-	4d\	nar-	4b-y\	nar-	4dd\	nar-
2G/	-ran-	2g\	-ran-	2E-X/	-ran-	2B-y/	-ran-	2b-\	-ran-	2ee-X\	-ran-
*custos:B-	*	*custos:f	*	*custos:BB-	*	*	*	*	*	*	*
!LO:LB:g=original	!	!LO:LB:g=original	!	!LO:LB:g=original	!	!	!	!	!	!	!
=6-	=6-	=6-	=6-	=6-	=6-	=6-	=6-	=6-	=6-	=6-	=6-
*xywh-#18:4456,1290,3379,659	*	*xywh-#100:4515,1272,3407,642	*	*xywh-#252:4768,1318,3343,682	*	*	*	*	*	*	*
2B-/	-do à	2f\	-do à-	2BB-/	-do	2d\	-do	2b-\	-do a	2dd\	-do à
4.d\	la	4.f\	-la	2r	.	2r	.	4.a\	la	4.ff\	la
8A/	mia	8a\	mia	.	.	.	.	8cc\	mia	8eeny\	mia
4B-/	va-	4f\	va-	1r	.	1r	.	4b-\	va-	4dd\	va-
4F/	-ga	4f\	-ga	.	.	.	.	4a\	-ga	4cc\	-ga
2c/	ſtel-	2e\	ſtel-	.	.	.	.	2g\	ſtel-	2cc\	ſtel-
=7-	=7-	=7-	=7-	=7-	=7-	=7-	=7-	=7-	=7-	=7-	=7-
4c/	-la	4e\	-la	0r	.	0r	.	4g\	-la	2cc\	-la
4F/	L'a-	4f\	L'a-	.	.	.	.	4a\	L'a-	.	.
2.f\	-mor	2.a\	-mor	.	.	.	.	2.cc\	-mor	4r	.
.	.	.	.	.	.	.	.	.	.	4f/	L'a-
.	.	.	.	.	.	.	.	.	.	4ff\	-mor
!	!	!	!	!	!	!	!	!LO:N:acc=#	!	!	!
4g\	mio in	4g\	mio in	.	.	.	.	4bn\	mio in	4dd\	mio in
2c/	ri-	2g\	ri-	.	.	.	.	2cc\	ri-	2ee-X\	ri-
=8-	=8-	=8-	=8-	=8-	=8-	=8-	=8-	=8-	=8-	=8-	=8-
1d	-me	1f#X	-me	1r	.	2r	.	1a	-me	0dd	-me
.	.	.	.	.	.	1d	quan-	.	.	.	.
!	!	!	!	!	!	!	!	!LO:N:acc=#	!	!	!
2r	.	1g	quan-	1G	quan-	.	.	1bn	quã(n)-	.	.
1g\	quan-	.	.	.	.	1G/	-do	.	.	.	.
*	*	*	*	*	*	*	*	*custos:cc	*	*	*
!	!	!	!	!	!	!	!	!LO:LB:g=original	!	!	!
=9-	=9-	=9-	=9-	=9-	=9-	=9-	=9-	=9-	=9-	=9-	=9-
*	*	*	*	*	*	*	*	*xywh-#556:4677,1791,3386,652	*	*	*
.	.	0e	-do	1C	-do	.	.	1cc	-do	1gg	quan-
1c	-do	.	.	.	.	1g	quã(n)-	.	.	.	.
.	.	.	.	1c	quã(n)-	.	.	2r	.	0cc	-do
2eny\	quan-	.	.	.	.	1c\	-do	2g\	quã(n)-	.	.
=10-	=10-	=10-	=10-	=10-	=10-	=10-	=10-	=10-	=10-	=10-	=10-
1f	-do	00r	.	1F	-do	.	.	1a	-do	.	.
.	.	.	.	.	.	2.f\	A un	.	.	.	.
!	!	!	!	!	!	!	!	!	!	!LO:TX:t=P:problem: VHV nie wyświtla pauzy	!
4d\	A un	.	.	4B-\	A un	.	.	4b-y\	A un	1r	.
2d\	dol-	.	.	2B-\	dol-	2f\	dol-	2b-\	dol-	.	.
4d\	-ce	.	.	4G\	-ce	4g\	-ce	4b-\	-ce	.	.
*custos:c#	*	*	*	*	*	*	*	*	*	*	*
!LO:LB:g=original	!	!	!	!	!	!	!	!	!	!	!
=11-	=11-	=11-	=11-	=11-	=11-	=11-	=11-	=11-	=11-	=11-	=11-
*xywh-#18:4442,1818,3435,631	*	*	*	*	*	*	*	*	*	*	*
2c#X/	ſguar-	.	.	2A\	ſguar-	2e\	ſguar-	2a\	ſguar-	0r	.
2c#/	-do	.	.	2A\	-do	2e\	-do	1a	-do	.	.
2d\	ch'el-	.	.	2D/	ch'el-	2f\	ch'el-	.	.	.	.
4A/	-la	.	.	4D/	-la	2f\	-la	2r	.	.	.
4d\	Mi	.	.	4D/	Mi	.	.	.	.	.	.
=12-	=12-	=12-	=12-	=12-	=12-	=12-	=12-	=12-	=12-	=12-	=12-
4.f\	faet-	1r	.	4.d\	faet-	1r	.	2a\	ch'el-	2dd\	ch'el-
8f\	-tò	.	.	8d\	-tò	.	.	.	.	.	.
8f\	.	.	.	8d\	.	.	.	4a\	-la	4dd\	-la
8e\	.	.	.	8c\	.	.	.	.	.	.	.
8d\	.	.	.	8B-\	.	.	.	4b-\	Mi	4dd\	Mi
8cny/	.	.	.	8A\	.	.	.	.	.	.	.
*	*	*	*	*custos:G	*	*custos:g	*	*	*	*custos:gg	*
!	!	!	!	!LO:LB:g=original	!	!LO:LB:g=original	!	!	!	!LO:LB:g=original	!
*	*	*	*	*xywh-#252:4791,1838,3289,721	*	*xywh-#404:4718,1703,3417,729	*	*	*	*xywh-#708:4800,1777,3308,684	*
8B-/	.	2d\	ch'el-	2.G\	.	2g\	ch'el-	4.b-\	faet-	4.gg\	faet-
8A/	.	.	.	.	.	.	.	.	.	.	.
4G/	.	.	.	.	.	.	.	.	.	.	.
.	.	.	.	.	.	.	.	8b-\	-tò	8gg\	-tò
2r	.	4d\	-la	.	.	4g\	-la	8b-\	.	8gg\	.
.	.	.	.	.	.	.	.	8a\	.	8ff\	.
.	.	4e\	Mi	4c\	Mi	4g\	Mi	8g\	.	8eeny\	.
.	.	.	.	.	.	.	.	8f\	.	8dd\	.
*	*	*custos:e	*	*	*	*	*	*	*	*	*
!	!	!LO:LB:g=original	!	!	!	!	!	!	!	!	!
=13-	=13-	=13-	=13-	=13-	=13-	=13-	=13-	=13-	=13-	=13-	=13-
*	*	*xywh-#100:4543,1749,3393,711	*	*	*	*	*	*	*	*	*
2r	.	4.e\	faet-	4.c\	faet-	4.g\	fa-	4e/	.	2cc\	.
.	.	.	.	.	.	.	.	4c/	nel	.	.
.	.	8e\	-tò	8c\	-tò	8g\	-et-	.	.	.	.
*	*	*	*	*	*	*	*	*custos:cc	*	*	*
!	!	!	!	!	!	!	!	!LO:LB:g=original	!	!	!
*	*	*	*	*	*	*	*	*xywh-#556:4654,2267,3371,706	*	*	*
4r	.	8e\	.	4c\	.	8g\	-tò	2cc\	vi-	2ee\	nel
.	.	8d\	.	.	.	8f\	.	.	.	.	.
4g\	Mi	8c\	.	4C/	Mi	8e\	.	.	.	.	.
.	.	8B-y/	.	.	.	8d\	.	.	.	.	.
4.a\	faet-	2A/	.	4.F/	faet-	2c/	.	2cc\	-ſo	2ff\	vi-
8a\	-tò	.	.	8F/	-tò	.	.	.	.	.	.
8a\	.	2A/	Mi	8F/	.	2f\	Mi	4r	.	4cc\	-ſo
8g\	.	.	.	8E/	.	.	.	.	.	.	.
8f\	.	.	.	8D/	.	.	.	4a\	Mi	4ff\	Mi
8e\	.	.	.	8C/	.	.	.	.	.	.	.
*custos:d	*	*	*	*	*	*	*	*	*	*	*
!LO:LB:g=original	!	!	!	!	!	!	!	!	!	!	!
=14-	=14-	=14-	=14-	=14-	=14-	=14-	=14-	=14-	=14-	=14-	=14-
*xywh-#18:4428,2331,3400,673	*	*	*	*	*	*	*	*	*	*	*
1d	.	4.B-/	faet-	1BB-	.	4.f\	fa-	4.dd\	faet-	4.ff\	faet-
.	.	8B-/	-tò	.	.	8f\	-et-	8dd\	-tò	8ff\	-tò
.	.	1B-	.	.	.	4f\	-tò	8dd\	.	8ff\	.
.	.	.	.	.	.	.	.	8cc\	.	8ee\	.
.	.	.	.	.	.	4F/	nel	8b-\	.	8dd\	.
.	.	.	.	.	.	.	.	8a\	.	8cc\	.
2e-X\	nel	.	.	1E-X	nel	0G	vi-	2g\	.	2b-/	.
2.e-\	vi-	2G/	nel	.	.	.	.	1g\	nel	2b-/	nel
=15-	=15-	=15-	=15-	=15-	=15-	=15-	=15-	=15-	=15-	=15-	=15-
.	.	1g	vi-	1C	vi-	.	.	.	.	1ee-X	vi-
4d\	.	.	.	.	.	.	.	.	.	.	.
2c/	.	.	.	.	.	.	.	1cc	vi-	.	.
0d	-ſo	0g	-ſo	0G	-ſo	1G	-ſo	.	.	0dd	-ſo
!	!	!	!	!	!	!	!	!LO:N:acc=#	!	!	!
.	.	.	.	.	.	.	.	4bn\	.	.	.
.	.	.	.	.	.	.	.	4a\	.	.	.
=16-	=16-	=16-	=16-	=16-	=16-	=16-	=16-	=16-	=16-	=16-	=16-
!	!	!	!	!	!	!	!	!LO:N:acc=#	!	!	!
.	Io	.	.	.	.	1r	.	1bn	-ſo	.	.
1r	.	1r	.	4r	.	4r	.	1r	.	2gg\	Io
.	.	.	.	4c\	Io	4e\	Io	.	.	.	.
*	*	*	*	*	*	*	*	*	*	*custos:ff	*
!	!	!	!	!	!	!	!	!	!	!LO:LB:g=original	!
*	*	*	*	*	*	*	*	*	*	*xywh-#708:4793,2332,3384,654	*
.	.	.	.	4d\	fui	4a\	fui	.	.	2ff\	fui
.	.	.	.	4B-\	co-	4d\	co-	.	.	.	.
*	*	*	*	*custos:c	*	*custos:e	*	*	*	*	*
!	!	!	!	!LO:LB:g=original	!	!LO:LB:g=original	!	!	!	!	!
=17-	=17-	=17-	=17-	=17-	=17-	=17-	=17-	=17-	=17-	=17-	=17-
*	*	*	*	*xywh-#252:4814,2389,3328,690	*	*xywh-#404:4757,2263,3348,721	*	*	*	*	*
4r	.	4g\	Io	4c\	-ſi	2e\	-ſi	2r	.	2eeny\	co-
4c/	fui	4a\	ui	4A\	con-	.	.	.	.	.	.
4d\	co-	4fny\	co-	4B-\	-qui-	2r	.	4r	.	4dd\	-ſi
4B-/	-ſi	4g\	-ſi	4G\	-ſo	.	.	2g\	Io	4dd\	con-
4c/	con-	4e\	con-	4r	.	4g\	Io	.	.	4cc\	-qui-
4A/	-qui-	4f\	-qui-	4c\	Io	4a\	fui	4.f\	fui	4cc\	-ſo
4B-/	-ſo	4d\	-ſo	4d\	fui	4f\	co-	.	.	4r	.
.	.	.	.	.	.	.	.	8f\	co-	.	.
4G/	.	4r	.	4B-\	co-	4g\	-ſi	4b-y\	-ſi	2gg\	Io
*	*	*custos:g	*	*	*	*	*	*custos:cc	*	*	*
!	!	!LO:LB:g=original	!	!	!	!	!	!LO:LB:g=original	!	!	!
=18-	=18-	=18-	=18-	=18-	=18-	=18-	=18-	=18-	=18-	=18-	=18-
*	*	*xywh-#100:4564,2364,3345,677	*	*	*	*	*	*xywh-#556:4661,2843,3409,645	*	*	*
4r	.	4g\	Io	4c\	-ſi	4e\	con-	4r	.	.	.
4c/	Io	4a\	fui	4A\	con-	4f\	-qui-	4cc\	Io	2ff\	fui
4d\	fui	4f\	co-	4B-\	-qui-	4d\	-ſo	2b-\	fui	.	.
4B-/	co-	4g\	-ſi	8G\	-ſo	4r	.	.	.	2ee\	co-
.	.	.	.	8G\	Io	.	.	.	.	.	.
4c/	-ſi	4e\	con-	4A\	fui	2r	.	2a\	co-	.	.
4A/	con-	4f\	-qui-	4F/	co-	.	.	.	.	2dd\	-ſi
4B-/	-qui-	4d\	-ſo	4G\	-ſi	4r	.	4g\	-ſi	.	.
4G/	-ſo	4r	.	4Eny/	con-	4e\	con-	4g\	con-	4cc\	con-
*custos:c	*	*	*	*	*	*	*	*	*	*	*
!LO:LB:g=original	!	!	!	!	!	!	!	!	!	!	!
=19-	=19-	=19-	=19-	=19-	=19-	=19-	=19-	=19-	=19-	=19-	=19-
*xywh-#18:4435,2894,3379,645	*	*	*	*	*	*	*	*	*	*	*
2r	.	2.c/	Che	2F/	-qui-	2a\	-qui-	2f\	-qui-	2cc\	-qui-
2.c/	Che	.	.	2C/	-ſp	2g\	-ſo	2e/	-ſo	1cc	-ſo
.	.	4B-/	n'an-	.	.	.	.	.	.	.	.
.	.	1A	-dò	2.F/	Cje-	2.c/	Che	2r	.	.	.
4B-/	n'an-	.	.	.	.	.	.	.	.	.	.
1A/	-dò	.	.	.	.	.	.	2.f\	Che-	2.ff\	Che
.	.	.	.	4E/	-n'an-	4c/	n'an-	.	.	.	.
=20-	=20-	=20-	=20-	=20-	=20-	=20-	=20-	=20-	=20-	=20-	=20-
.	.	2.f\	Che	1D	-do	1d	-dò	.	.	.	.
.	.	.	.	.	.	.	.	4g\	-n'an-	4ee\	n'an-
2.f\	Che	.	.	.	.	.	.	2a\	-dò	1dd	-dò
.	.	4e\	n'an-	.	.	.	.	.	.	.	.
*	*	*	*	*custos:B-	*	*	*	*	*	*	*
!	!	!	!	!LO:LB:g=original	!	!	!	!	!	!	!
*	*	*	*	*xywh-#252:4760,2901,3343,721	*	*	*	*	*	*	*
.	.	1d	-dò	2.B-\	Che-	2.f\	Che-	2r	.	.	.
4eny\	n'an-	.	.	.	.	.	.	.	.	.	.
2d\	-dò	.	.	.	.	.	.	2.b-\	Che-	2.dd\	Che-
.	.	.	.	4A\	-n'an-	4f\	-n'an-	.	.	.	.
=21-	=21-	=21-	=21-	=21-	=21-	=21-	=21-	=21-	=21-	=21-	=21-
1d	l'al-	00r	.	1G	-do	1g	-dò	.	.	.	.
.	.	.	.	.	.	.	.	4a\	-n'an-	4cc\	-n'an-
.	.	.	.	.	.	.	.	1g	-dò	2b-/	-dò
*	*	*	*	*	*	*custos:d	*	*	*	*	*
!	!	!	!	!	!	!LO:LB:g=original	!	!	!	!	!
*	*	*	*	*	*	*xywh-#404:4803,2778,3348,706	*	*	*	*	*
1D	-ma	.	.	1d	l'al-	2r	.	.	.	1a	l'al-
.	.	.	.	.	.	1d\	l'al-	1f\	l'al-	.	.
*	*	*	*	*	*	*	*	*	*	*custos:a	*
!	!	!	!	!	!	!	!	!	!	!LO:LB:g=original	!
=22-	=22-	=22-	=22-	=22-	=22-	=22-	=22-	=22-	=22-	=22-	=22-
*	*	*	*	*	*	*	*	*	*	*xywh-#708:4793,2849,3377,669	*
0r	.	.	.	1A	-ma	.	.	.	.	1a	-ma
.	.	.	.	.	.	2c/	-ma	2e/	-ma	.	.
.	.	.	.	4.B-\	nei	4.f\	nei	4.d/	nei	4.dd\	nei
!	!	!	!	!	!	!	!	!LO:SIC:v:t=custos g	!	!	!
.	.	.	.	8A\	lu-	8a\	lu-	8e/	lu-	8cc\	lu-
*	*	*	*	*	*	*	*	*custos:g	*	*	*
!	!	!	!	!	!	!	!	!LO:LB:g=original	!	!	!
*	*	*	*	*	*	*	*	*xywh-#556:4692,3350,3394,691	*	*	*
.	.	.	.	4G\	-cen-	4d\	-cen-	4g\	-cen-	4b-/	-cen-
.	.	.	.	4F/	-ti	2f\	-ti	4cc\	-ti	4a/	-ti
=23-	=23-	=23-	=23-	=23-	=23-	=23-	=23-	=23-	=23-	=23-	=23-
1r	.	2r	.	1c	rai	.	.	1cc	ra-	1g	rai
.	.	.	.	.	.	8e\	.	.	.	.	.
.	.	.	.	.	.	8d\	.	.	.	.	.
.	.	2c/	Et	.	.	2e\	.	.	.	.	.
2r	.	2c/	l'al-	1F	Et	1f	rai	1cc	-i	1a	.
2f\	Et	2c/	-ma	.	.	.	.	.	.	.	.
=24-	=24-	=24-	=24-	=24-	=24-	=24-	=24-	=24-	=24-	=24-	=24-
1f	l'al-	2r	.	1B-	l'al-	1d	Et	1b-	Et	1dd	Et
.	.	4.B-/	che	.	.	.	.	.	.	.	.
.	.	8c/	n'an-	.	.	.	.	.	.	.	.
*	*	*custos:d	*	*	*	*	*	*	*	*	*
!	!	!LO:LB:g=original	!	!	!	!	!	!	!	!	!
*	*	*xywh-#100:4584,2910,3331,622	*	*	*	*	*	*	*	*	*
2f\	-ma	4d\	-dò	1B-	-ma	2d\	l'al-	1b-	l'al-	1dd	l'al-
.	.	4f\	nõ(n)	.	.	.	.	.	.	.	.
4.B-/	che	4.d\	-tòr-	.	.	2f\	-ma	.	.	.	.
8c/	n'an-	8e\	-na	.	.	.	.	.	.	.	.
=25-	=25-	=25-	=25-	=25-	=25-	=25-	=25-	=25-	=25-	=25-	=25-
4d\	-dò	2f\	ma-	1B-	.	2r	.	1b-	-ma	1dd	-ma
4f\	nõ(n)	.	.	.	.	.	.	.	.	.	.
4.d\	tor-	2f\	-i	.	.	4.B-/	che	.	.	.	.
8e\	-na	.	.	.	.	8c/	n'an-	.	.	.	.
2f\	ma-	4r	.	4.BB-/	che-	4d\	-dò	1r	.	2r	.
.	.	4d\	non	.	.	4f\	non	.	.	.	.
.	.	.	.	8C/	-n'an-	.	.	.	.	.	.
*custos:F	*	*	*	*	*	*	*	*	*	*	*
!LO:LB:g=original	!	!	!	!	!	!	!	!	!	!	!
*xywh-#18:4435,3407,3379,659	*	*	*	*	*	*	*	*	*	*	*
4F/	-i	2.f\	tor-	4D/	-do	4.d\	tor-	.	.	2ff\	Et
4A/	non	.	.	4F/	non	.	.	.	.	.	.
.	.	.	.	.	.	8e\	-na	.	.	.	.
*	*	*	*	*custos:D	*	*	*	*	*	*	*
!	!	!	!	!LO:LB:g=original	!	!	!	!	!	!	!
=26-	=26-	=26-	=26-	=26-	=26-	=26-	=26-	=26-	=26-	=26-	=26-
*	*	*	*	*xywh-#252:4791,3460,3328,682	*	*	*	*	*	*	*
4A/	to-	.	.	4.D/	tor-	1f	ma-	1r	.	1ff	l'al-
2B-/	-rna	4d\	-na	.	.	.	.	.	.	.	.
.	.	.	.	8E/	-na	.	.	.	.	.	.
.	.	2c/	ma-	2F/	ma-	.	.	.	.	.	.
4A/	ma-	.	.	.	.	.	.	.	.	.	.
*	*	*	*	*	*	*custos:f	*	*	*	*	*
!	!	!	!	!	!	!LO:LB:g=original	!	!	!	!	!
*	*	*	*	*	*	*xywh-#404:4795,3300,3402,737	*	*	*	*	*
1B-	-i	1d	-i	1BB-	-i	2f\	-i	2r	.	1ff	-ma
.	.	.	.	.	.	4r	.	4.f\	che-	.	.
.	.	.	.	.	.	4.F/	che	.	.	.	.
.	.	.	.	.	.	.	.	8g\	-n'an-	.	.
=27-	=27-	=27-	=27-	=27-	=27-	=27-	=27-	=27-	=27-	=27-	=27-
4r	.	1c	Et	1F	Et	.	.	4a\	-dò	4.f/	che
.	.	.	.	.	.	8G/	n'an-	.	.	.	.
4.F/	che	.	.	.	.	4A/	-dò	4cc\	non	.	.
.	.	.	.	.	.	.	.	.	.	8g/	n'an-
.	.	.	.	.	.	4c/	non	4.a\	tor-	4a/	-dò
8G/	n'an-	.	.	.	.	.	.	.	.	.	.
4A/	-dò	.	.	.	.	4.A/	tor-	.	.	4cc\	non
.	.	.	.	.	.	.	.	8b-\	-na	.	.
4F/	non	1c	l'al-	1F	l'al-	.	.	2cc\	ma-	4.a/	tor-
.	.	.	.	.	.	8B-/	-na	.	.	.	.
4.A/	tor-	.	.	.	.	2c/	mai	.	.	.	.
.	.	.	.	.	.	.	.	.	.	8b-/	-na
*	*	*	*	*	*	*	*	*	*	*custos:cc	*
!	!	!	!	!	!	!	!	!	!	!LO:LB:g=original	!
*	*	*	*	*	*	*	*	*	*	*xywh-#708:4785,3367,3407,684	*
.	.	.	.	.	.	.	.	4f\	-i	2cc\	mai
8B-/	-na	.	.	.	.	.	.	.	.	.	.
2c/	ma-	.	.	.	.	4F/	.	4cc\	non	.	.
=28-	=28-	=28-	=28-	=28-	=28-	=28-	=28-	=28-	=28-	=28-	=28-
.	.	2c/	-ma	1F	-ma	2r	.	4.a\	tor-	4.f/	.
4F/	-i	.	.	.	.	.	.	.	.	.	.
.	.	.	.	.	.	.	.	8b-\	-na	8g/	.
4r	.	4.F/	che	.	.	2c/	Et	2cc\	ma-	2a/	.
4.f\	che	.	.	.	.	.	.	.	.	.	.
.	.	8G/	n'an-	.	.	.	.	.	.	.	.
*	*	*	*	*	*	*	*	*custos:f	*	*	*
!	!	!	!	!	!	!	!	!LO:LB:g=original	!	!	!
*	*	*	*	*	*	*	*	*xywh-#556:4661,3849,3417,691	*	*	*
.	.	4A/	-dò	4.F/	che-	1c	l'al-	2f\	-i	1cc	Et
8g\	n'an-	.	.	.	.	.	.	.	.	.	.
4a\	-dò	2f\	non	.	.	.	.	.	.	.	.
.	.	.	.	8G\	-n'an-	.	.	.	.	.	.
4a\	non	.	.	4A\	-do	.	.	2r	.	.	.
2g\	tor-	2e\	tor-	4c\	non	.	.	.	.	.	.
=29-	=29-	=29-	=29-	=29-	=29-	=29-	=29-	=29-	=29-	=29-	=29-
.	.	.	.	4.A\	tor-	1c	-ma	0r	.	1cc	l'al-
2f\	-na	4a\	-na	.	.	.	.	.	.	.	.
.	.	.	.	8B-\	-na	.	.	.	.	.	.
.	.	2g\	ma-	2c\	ma-	.	.	.	.	.	.
4e\	ma-	.	.	.	.	.	.	.	.	.	.
*custos:f	*	*	*	*	*	*	*	*	*	*	*
!LO:LB:g=original	!	!	!	!	!	!	!	!	!	!	!
*xywh-#18:4422,3928,3372,700	*	*	*	*	*	*	*	*	*	*	*
1f	-i	1a	-i	1F	-i	4.A/	che	.	.	2cc\	-ma
.	.	.	.	.	.	8B-/	n'an-	.	.	.	.
.	.	.	.	.	.	4c/	-dò	.	.	4.cc\	che
.	.	.	.	.	.	4f\	non	.	.	.	.
.	.	.	.	.	.	.	.	.	.	8dd\	n'an-
*	*	*custos:c	*	*	*	*	*	*	*	*	*
!	!	!LO:LB:g=original	!	!	!	!	!	!	!	!	!
=30-	=30-	=30-	=30-	=30-	=30-	=30-	=30-	=30-	=30-	=30-	=30-
*	*	*xywh-#100:4605,3401,3317,670	*	*	*	*	*	*	*	*	*
2r	.	2r	.	1c	Et	4.e\	tor-	1g	Et	4ee\	-dò
.	.	.	.	.	.	.	.	.	.	4gg\	non
.	.	.	.	.	.	8f\	-na	.	.	.	.
2e\	Et	4.c/	che	.	.	2g\	ma-	.	.	4.ee\	tor-
.	.	8d\	n'an-	.	.	.	.	.	.	8ff\	-na
*	*	*	*	*	*	*custos:c	*	*	*	*	*
!	!	!	!	!	!	!LO:LB:g=original	!	!	!	!	!
*	*	*	*	*	*	*xywh-#404:4764,3876,3409,645	*	*	*	*	*
1e	l'al-	4e\	-dò	1c	l'al-	2c/	-i	1g	l'al-	2gg\	mai
.	.	4g\	non	.	.	.	.	.	.	.	.
.	.	4.e\	tor-	.	.	2r	.	.	.	1cc\	.
.	.	8f\	-na	.	.	.	.	.	.	.	.
*	*	*	*	*custos:c	*	*	*	*	*	*	*
!	!	!	!	!LO:LB:g=original	!	!	!	!	!	!	!
=31-	=31-	=31-	=31-	=31-	=31-	=31-	=31-	=31-	=31-	=31-	=31-
*	*	*	*	*xywh-#252:4768,3979,3320,705	*	*	*	*	*	*	*
2e\	-ma	2.g\	ma-	2c\	-ma	4r	.	4g\	-ma	.	.
.	.	.	.	.	.	4e\	non	2cc\	che-	.	.
4.e\	che	.	.	4.C/	che-	4g\	tor-	.	.	4.ee\	che
.	.	4c/	-i	.	.	2e\	-na	4cc\	-n'an-	.	.
8d\	n'an-	.	.	8D/	-n'an-	.	.	.	.	8ff\	n'an-
4c/	-dò	4r	.	4E/	-do	.	.	1g	-dò	1gg	-dò
!LO:N:acc=#	!	!	!	!	!	!	!	!	!	!	!
4Bn/	non	4d\	non	4G\	non	4.d\	ma-	.	.	.	.
4c/	tor-	4g\	tor-	4.E/	tor-	.	.	.	.	.	.
.	.	.	.	.	.	8c/	.	.	.	.	.
4g\	-na	2e\	-na	.	.	2c/	.	.	.	.	.
.	.	.	.	8F/	-na	.	.	.	.	.	.
*	*	*	*	*	*	*	*	*	*	*custos:dd	*
!	!	!	!	!	!	!	!	!	!	!LO:LB:g=original	!
=32-	=32-	=32-	=32-	=32-	=32-	=32-	=32-	=32-	=32-	=32-	=32-
*	*	*	*	*	*	*	*	*	*	*xywh-#708:4770,3937,3354,669	*
1g	ma-	.	.	2G\	ma-	.	.	4r	.	4r	.
!	!	!	!	!	!	!LO:N:acc=#	!	!	!	!	!
.	.	4.d\	ma-	.	.	4Bn/	.	4g\	non	4dd\	non
.	.	.	.	2C/	-i	2c/	-i	4.e/	tor-	4ff\	tor-
.	.	8c/	.	.	.	.	.	.	.	.	.
.	.	2c/	.	.	.	.	.	.	.	2ee\	-na
.	.	.	.	.	.	.	.	8f\	-na	.	.
00.G	-i	.	.	4r	.	4r	.	0g	ma-	.	.
!	!	!LO:N:acc=#	!	!	!	!	!	!	!	!	!
.	.	4Bn/	.	4G\	non	4d\	non	.	.	4.dd\	ma-
.	.	2c/	-i	4.E/	tor-	4g\	tor-	.	.	.	.
.	.	.	.	.	.	.	.	.	.	8cc\	.
.	.	.	.	.	.	4e\	-na	.	.	2cc\	.
.	.	.	.	8F/	-na	.	.	.	.	.	.
*	*	*custos:g	*	*	*	*	*	*	*	*	*
!	!	!LO:LB:g=original	!	!	!	!	!	!	!	!	!
=33-	=33-	=33-	=33-	=33-	=33-	=33-	=33-	=33-	=33-	=33-	=33-
*	*	*xywh-#100:4550,3926,3359,649	*	*	*	*	*	*	*	*	*
.	.	4r	.	1G	ma-	1d	ma-	.	.	.	.
!	!	!	!	!	!	!	!	!	!	!LO:N:acc=#	!
.	.	4.g\	ma-	.	.	.	.	.	.	8bn/	.
.	.	.	.	.	.	.	.	.	.	8a/	.
!	!	!	!	!	!	!	!	!	!	!LO:N:acc=#	!
.	.	.	.	.	.	.	.	.	.	2bn/	.
.	.	16f\	.	.	.	.	.	.	.	.	.
.	.	16e\	.	.	.	.	.	.	.	.	.
.	.	4d\	.	.	.	.	.	.	.	.	.
.	.	00e	-i.	00C	-i	00c	-i.	00g	-i.	00cc	-i.
=34-	=34-	=34-	=34-	=34-	=34-	=34-	=34-	=34-	=34-	=34-	=34-
1ryy	.	1ryy	.	1ryy	.	1ryy	.	1ryy	.	1ryy	.
==	==	==	==	==	==	==	==	==	==	==	==
*-	*-	*-	*-	*-	*-	*-	*-	*-	*-	*-	*-
!!!system-decoration: [(s1,s2,s3,s4,s5,s6)]
!!!ENC: Andrzej Gręziak
!!!END: 2022-06-14
!!!ENC: Natalia Wrzos
!!!END: 2022-07-25
!!!ENC-iiif: Jolanta Bujas-Poniatowska
!!!END-iiif: 2022-09-23
!!!YEC: Copyright 2022 Narodowy Instytut Fryderyka Chopina (https://polishscores.org)
!!!YEM: License CC-BY-4.0 (https://creativecommons.org/licenses/by/4.0)
